svg/free/lan.svg

<svg version="1.1" xmlns="http://www.w3.org/2000/svg" width="24" height="24" viewBox="0 0 24 24">
<title>lan</title>
<path d="M23.25 12.75v-1.5h-10.5v-2.25h2.625c0.621-0.001 1.124-0.504 1.125-1.125v-6c-0.001-0.621-0.504-1.124-1.125-1.125h-6.75c-0.621 0.001-1.124 0.504-1.125 1.125v6c0.001 0.621 0.504 1.124 1.125 1.125h2.625v2.25h-10.5v1.5h3.75v2.25h-2.56c-0.621 0.001-1.124 0.504-1.125 1.125v6c0.001 0.621 0.504 1.124 1.125 1.125h6.685c0.621-0.001 1.124-0.504 1.125-1.125v-6c-0.001-0.621-0.504-1.124-1.125-1.125h-2.625v-2.25h12v2.25h-2.625c-0.621 0.001-1.124 0.504-1.125 1.125v6c0.001 0.621 0.504 1.124 1.125 1.125h6.75c0.621-0.001 1.124-0.504 1.125-1.125v-6c-0.001-0.621-0.504-1.124-1.125-1.125h-2.625v-2.25zM9 2.25h6v5.25h-6zM8.25 21.75h-5.935v-5.25h5.935zM21.75 21.75h-6v-5.25h6z"></path>
</svg>

<svg xmlns="http://www.w3.org/2000/svg" width="24" height="24" viewBox="0 0 24 24"><path d="M23.25 12.75v-1.5h-10.5V9h2.625A1.127 1.127 0 0016.5 7.875v-6A1.127 1.127 0 0015.375.75h-6.75A1.127 1.127 0 007.5 1.875v6A1.127 1.127 0 008.625 9h2.625v2.25H.75v1.5H4.5V15H1.94a1.127 1.127 0 00-1.125 1.125v6A1.127 1.127 0 001.94 23.25h6.685a1.127 1.127 0 001.125-1.125v-6A1.127 1.127 0 008.625 15H6v-2.25h12V15h-2.625a1.127 1.127 0 00-1.125 1.125v6a1.127 1.127 0 001.125 1.125h6.75a1.127 1.127 0 001.125-1.125v-6A1.127 1.127 0 0022.125 15H19.5v-2.25zM9 2.25h6V7.5H9zm-.75 19.5H2.315V16.5H8.25zm13.5 0h-6V16.5h6z"/></svg>
